X: 24224
T: Lord Moira's Welcome To Scotland
R: strathspey
M: 4/4
K: Gmajor
|:G3B d3B|cABG AG (3FED|G3B d2Bd|1 (3efg fa gedB:|2 (3efg fa g2gf||
gabg ag (3fed|efge dB~B2|gabg ag (3fed|egfa g2d2|
gabg ag (3fed|efge dBBA|G3B d2Bd|(3efg fa gedB||

